X:1
T:Title
%%score { ( 1 4 ) | ( 2 3 ) }
L:1/8
M:4/4
K:Eb
V:1 treble nm="Grand Piano"
V:4 treble 
V:2 treble 
V:3 treble 
V:1
 z4 z2[Q:1/4=100] GA | [GB]2 [Ge]2 [Bd]2 [Ac]2 | [Ac]2 [GB]4 [EG][EG] | [DF]2 [Ac]2 [GB]2 [FA]2 | %4
 [EG]6 [EG]A | [GB]2 [Ge]2 [Bd]2 [Ac]2 | [Ac]2 [GB]4 [EG][EG] | [DF]2 [Fd]2 [Fd]2 [Ec]2 | %8
 [DB]6 BB | [Ac]2 [GB]2 [FA]2 [DF]2 | [FA]2 [EG]4 [Ec][Fd] | [Ge]2 [Ge]2 [Ge]2 [Fd]2 | %12
 [Ec]6 [AB]>B | [GB]2 [Ge]2 [Bd]2 [Ac]2 | [GB]2 [Ge]4 [GB][FA] | z2 B2 z4 |[M:3/4] [G,E]6 | %17
[M:1/4] B>B |[M:4/4] B6 z2 | .B2 E>E E2 B>B | A6 z2 | G>G A>A B2 B>B | B6 z2 | z e3- e2 z2 | %24
 G B3 [EG]3 F |[M:3/4] E6 |] %26
V:2
 z4 z2 EF | E,G,B,E E,A,CE | E,G,B,E E,G,B,G, | B,,D,F,B, B,,D,F,B, | z4 z2 B,2 | E,G,B,E E,A,CE | %6
 E,G,B,E E,G,B,G, | B,F,D,B,, F,,=A,,C,F, | B,,D,F,B, B,,2[K:treble] GG | B,,D,F,B, B,,D,F,B, | %10
 E,G,B,G, E,2 E,D, | C,E,G,C G,,=B,,D,G, | C,CG,E, C,2 z z/ A/ | E,G,B,E E,A,CE | E,G,B,E E,G,B,E | %15
 B,,E,[K:treble][G,G]B,[K:bass] z2 A,2 |[M:3/4] E,E, B,,G,, E,,2 |[M:1/4] z2 | %18
[M:4/4] [E,G,E]2 [F,A,]>[F,A,] [G,B,]2 [A,E]>[A,E] | [G,B,E][E,B,E] [E,B,]>[E,B,] [E,B,]2 z2 | %20
 B,,C,[D,B,][E,B,] [F,B,]2 [B,,B,]>[B,,B,] | [E,B,E]>[E,B,E] [F,B,D]>[F,B,D] [G,B,E]2 z2 | %22
 [E,G,E]2 [F,A,]>[F,A,] [G,B,]2 [A,E]>[A,E] | %23
 [G,B,E][E,B,] [E,B,]>[E,B,] [E,B,]2[K:treble] [G,B,E]>[A,CE] | %24
 [B,E] [B,G]3[K:bass] [B,,B,]3 [B,,A,B,] |[M:3/4] [E,G,B,]6 |] %26
V:3
 x8 | x8 | x8 | x8 | E,G,B,G, E,G, z F | x8 | x8 | x8 | x6[K:treble] x2 | x8 | x8 | x8 | %12
 z4 z2 B,,2 | x8 | x8 | z4[K:treble][K:bass] B,,4 |[M:3/4] x6 |[M:1/4] x2 |[M:4/4] x8 | x8 | x8 | %21
 x8 | x8 | x6[K:treble] x2 | x4[K:bass] x4 |[M:3/4] x6 |] %26
V:4
 x8 | x8 | x8 | x8 | x8 | x8 | x8 | x8 | x8 | x8 | x8 | x8 | x8 | x8 | x8 | [EG]2 z E [B,G]2 F2 | %16
[M:3/4] x6 |[M:1/4] x2 |[M:4/4] z2 D>D E2 c>c | z G3- G2 z2 | [B,D]2 FF D2 [DA]>[DA] | x8 | %22
 z2 D>D E2 c>c | BG G>G G2 B>A | x8 |[M:3/4] x6 |] %26

